data/help-browser.svg

<?xml version="1.0" encoding="UTF-8" standalone="no"?>
<svg
   xmlns:dc="http://purl.org/dc/elements/1.1/"
   xmlns:cc="http://creativecommons.org/ns#"
   xmlns:rdf="http://www.w3.org/1999/02/22-rdf-syntax-ns#"
   xmlns:svg="http://www.w3.org/2000/svg"
   xmlns="http://www.w3.org/2000/svg"
   xmlns:xlink="http://www.w3.org/1999/xlink"
   xmlns:sodipodi="http://sodipodi.sourceforge.net/DTD/sodipodi-0.dtd"
   xmlns:inkscape="http://www.inkscape.org/namespaces/inkscape"
   version="1.1"
   inkscape:output_extension="org.inkscape.output.svg.inkscape"
   sodipodi:docname="help-browser.svg"
   inkscape:version="1.0beta2 (unknown)"
   sodipodi:version="0.32"
   id="svg6361"
   height="48.000000px"
   width="48.000000px">
  <defs
     id="defs3">
    <inkscape:perspective
       id="perspective23"
       inkscape:persp3d-origin="24 : 16 : 1"
       inkscape:vp_z="48 : 24 : 1"
       inkscape:vp_y="0 : 1000 : 0"
       inkscape:vp_x="0 : 24 : 1"
       sodipodi:type="inkscape:persp3d" />
    <linearGradient
       id="linearGradient2431">
      <stop
         id="stop2433"
         offset="0"
         style="stop-color:#ffffff;stop-opacity:1;" />
      <stop
         id="stop2435"
         offset="1"
         style="stop-color:#b8b8b8;stop-opacity:1;" />
    </linearGradient>
    <linearGradient
       id="linearGradient2933">
      <stop
         style="stop-color:#9cbcde;stop-opacity:1"
         offset="0"
         id="stop2935" />
      <stop
         style="stop-color:#204a87"
         offset="1"
         id="stop2937" />
    </linearGradient>
    <radialGradient
       gradientTransform="matrix(1.238342,5.954846e-3,-6.507762e-3,1.351272,-6.992513,-9.744842)"
       gradientUnits="userSpaceOnUse"
       r="22.376116"
       fy="28.458725"
       fx="26.544321"
       cy="28.458725"
       cx="26.544321"
       id="radialGradient2207"
       xlink:href="#linearGradient2933"
       inkscape:collect="always" />
    <radialGradient
       gradientUnits="userSpaceOnUse"
       gradientTransform="matrix(4.445991,-8.852599e-16,1.367217e-15,6.8665,67.25071,-104.6679)"
       r="8.7536434"
       fy="16.855663"
       fx="-19.515638"
       cy="16.855663"
       cx="-19.515638"
       id="radialGradient2437"
       xlink:href="#linearGradient2431"
       inkscape:collect="always" />
  </defs>
  <sodipodi:namedview
     inkscape:window-maximized="0"
     inkscape:document-rotation="0"
     stroke="#204a87"
     fill="#deb887"
     inkscape:showpageshadow="false"
     inkscape:window-y="30"
     inkscape:window-x="0"
     inkscape:window-height="818"
     inkscape:window-width="1014"
     inkscape:document-units="px"
     inkscape:grid-bbox="true"
     showgrid="true"
     inkscape:current-layer="layer1"
     inkscape:cy="34.581866"
     inkscape:cx="11.627895"
     inkscape:zoom="16"
     inkscape:pageshadow="2"
     inkscape:pageopacity="0.0"
     borderopacity="0.15294118"
     bordercolor="#666666"
     pagecolor="#ffffff"
     id="base"
     showguides="true"
     inkscape:guide-bbox="true">
    <inkscape:grid
       enabled="true"
       visible="true"
       empspacing="10"
       empopacity="0.5372549"
       opacity="0.12156863"
       empcolor="#7b7bc3"
       color="#7171cd"
       spacingy="1"
       spacingx="1"
       originy="0"
       originx="0"
       type="xygrid"
       id="GridFromPre046Settings" />
  </sodipodi:namedview>
  <metadata
     id="metadata4">
    <rdf:RDF>
      <cc:Work
         rdf:about="">
        <dc:format>image/svg+xml</dc:format>
        <dc:type
           rdf:resource="http://purl.org/dc/dcmitype/StillImage" />
        <dc:title>Help Browser</dc:title>
        <dc:date>2005-11-06</dc:date>
        <dc:creator>
          <cc:Agent>
            <dc:title>Tuomas Kuosmanen</dc:title>
          </cc:Agent>
        </dc:creator>
        <dc:subject>
          <rdf:Bag>
            <rdf:li>help</rdf:li>
            <rdf:li>browser</rdf:li>
            <rdf:li>documentation</rdf:li>
            <rdf:li>docs</rdf:li>
            <rdf:li>man</rdf:li>
            <rdf:li>info</rdf:li>
          </rdf:Bag>
        </dc:subject>
        <cc:license
           rdf:resource="http://creativecommons.org/licenses/publicdomain/" />
        <dc:contributor>
          <cc:Agent>
            <dc:title>Jakub Steiner, Andreas Nilsson</dc:title>
          </cc:Agent>
        </dc:contributor>
        <dc:source>http://tigert.com</dc:source>
      </cc:Work>
      <cc:License
         rdf:about="http://creativecommons.org/licenses/publicdomain/">
        <cc:permits
           rdf:resource="http://creativecommons.org/ns#Reproduction" />
        <cc:permits
           rdf:resource="http://creativecommons.org/ns#Distribution" />
        <cc:permits
           rdf:resource="http://creativecommons.org/ns#DerivativeWorks" />
      </cc:License>
    </rdf:RDF>
  </metadata>
  <g
     inkscape:groupmode="layer"
     inkscape:label="Layer 1"
     id="layer1">
    <circle
       r="21.876116"
       cy="23.825787"
       cx="23.909048"
       transform="matrix(0.938442,0,0,0.93868,1.564075,1.633906)"
       id="path2093"
       style="fill:url(#radialGradient2207);fill-opacity:1;stroke:#204a87" />
    <circle
       r="21.876116"
       cy="23.825787"
       cx="23.909048"
       style="opacity:0.960227;fill:none;fill-opacity:1;stroke:#ffffff;stroke-width:3.03077;stroke-miterlimit:4;stroke-dasharray:none;stroke-opacity:1"
       id="path2209"
       transform="matrix(0.855103,0,0,0.855213,3.555288,3.625019)" />
    <path
       inkscape:href="#text2215"
       transform="matrix(0.849895,0,0,0.835205,41.72981,8.548327)"
       d="m -20.25,5.8652344 c -1.059019,2.62e-5 -2.141777,0.1251887 -3.275391,0.3457031 -1.132924,0.2204283 -2.39774,0.5433719 -3.767578,1.0058594 a 0.13496364,0.13496364 0 0 0 -0.0918,0.1269531 V 12.5 a 0.13496364,0.13496364 0 0 0 0.207032,0.113281 c 1.142437,-0.719043 2.235305,-1.253465 3.283203,-1.611328 a 0.13496364,0.13496364 0 0 0 0.002,0 c 1.048141,-0.368756 2.029444,-0.554667 2.923828,-0.554687 0.949218,2e-5 1.652737,0.212498 2.164062,0.626953 a 0.13496364,0.13496364 0 0 0 0.002,0 c 0.508723,0.40209 0.761707,0.971321 0.761718,1.707031 -10e-6,0.480657 -0.124656,0.943598 -0.417968,1.429688 a 0.13496364,0.13496364 0 0 0 -0.002,0.002 c -0.28299,0.487015 -0.744171,1.028541 -1.378906,1.591797 l -1.091797,0.9375 a 0.13496364,0.13496364 0 0 0 -0.002,0.002 c -1.201459,1.08049 -1.987289,1.996881 -2.373047,2.724609 -0.382558,0.711068 -0.57813,1.519995 -0.578125,2.4375 v 0.8125 A 0.13496364,0.13496364 0 0 0 -23.75,22.853516 h 6.09375 a 0.13496364,0.13496364 0 0 0 0.134766,-0.134766 v -0.75 c -1.2e-5,-0.468196 0.130791,-0.88699 0.357422,-1.275391 a 0.13496364,0.13496364 0 0 0 0,-0.002 c 0.222294,-0.391284 0.711979,-0.946453 1.472656,-1.621094 l 1.0625,-0.9375 a 0.13496364,0.13496364 0 0 0 0.002,-0.002 c 1.066588,-0.98231 1.826753,-1.890513 2.277344,-2.755859 0.449268,-0.874046 0.703106,-1.87342 0.703125,-2.96875 -1.9e-5,-2.126265 -0.765254,-3.7476994 -2.240235,-4.8574219 C -15.361916,6.4278029 -17.48124,5.8652606 -20.25,5.8652344 Z m -3.5,19.1562496 a 0.13496364,0.13496364 0 0 0 -0.134766,0.134766 V 31 A 0.13496364,0.13496364 0 0 0 -23.75,31.134766 h 6.09375 A 0.13496364,0.13496364 0 0 0 -17.521484,31 v -5.84375 a 0.13496364,0.13496364 0 0 0 -0.134766,-0.134766 z"
       id="path1554"
       style="font-style:normal;font-variant:normal;font-weight:bold;font-stretch:normal;font-size:34.1532px;line-height:125%;font-family:'Bitstream Vera Sans';text-align:start;writing-mode:lr-tb;text-anchor:start;fill:url(#radialGradient2437);fill-opacity:1;stroke:#ffffff;stroke-width:1.09947px;stroke-linecap:butt;stroke-linejoin:miter;stroke-opacity:0.786127"
       xlink:href="#text2215"
       inkscape:original="M -20.25 6 C -21.298341 6.000026 -22.372769 6.1244771 -23.5 6.34375 C -24.627244 6.563073 -25.886043 6.8832479 -27.25 7.34375 L -27.25 12.5 C -26.100219 11.776335 -24.997109 11.236862 -23.9375 10.875 C -22.877902 10.502213 -21.881822 10.312521 -20.96875 10.3125 C -19.999334 10.312521 -19.259834 10.530174 -18.71875 10.96875 C -18.177686 11.396402 -17.906262 12.013726 -17.90625 12.78125 C -17.906261 13.285654 -18.039408 13.776881 -18.34375 14.28125 C -18.636843 14.785651 -19.107484 15.33609 -19.75 15.90625 L -20.84375 16.84375 C -22.038631 17.918325 -22.815518 18.829509 -23.1875 19.53125 C -23.559495 20.22205 -23.750005 21.007137 -23.75 21.90625 L -23.75 22.71875 L -17.65625 22.71875 L -17.65625 21.96875 C -17.656262 21.475338 -17.517981 21.030712 -17.28125 20.625 C -17.044542 20.208345 -16.547785 19.648586 -15.78125 18.96875 L -14.71875 18.03125 C -13.659161 17.055386 -12.908389 16.156813 -12.46875 15.3125 C -12.029144 14.457253 -11.781268 13.480828 -11.78125 12.40625 C -11.781268 10.311973 -12.525902 8.7417969 -13.96875 7.65625 C -15.41163 6.559783 -17.499549 6.0000261 -20.25 6 z M -23.75 25.15625 L -23.75 31 L -17.65625 31 L -17.65625 25.15625 L -23.75 25.15625 z "
       inkscape:radius="0.13495015"
       sodipodi:type="inkscape:offset" />
  </g>
</svg>

<?xml version="1.0" encoding="UTF-8" standalone="no"?>
<!-- Created with Inkscape (http://www.inkscape.org/) -->
<svg
   xmlns:dc="http://purl.org/dc/elements/1.1/"
   xmlns:cc="http://creativecommons.org/ns#"
   xmlns:rdf="http://www.w3.org/1999/02/22-rdf-syntax-ns#"
   xmlns:svg="http://www.w3.org/2000/svg"
   xmlns="http://www.w3.org/2000/svg"
   xmlns:xlink="http://www.w3.org/1999/xlink"
   xmlns:sodipodi="http://sodipodi.sourceforge.net/DTD/sodipodi-0.dtd"
   xmlns:inkscape="http://www.inkscape.org/namespaces/inkscape"
   width="48.000000px"
   height="48.000000px"
   id="svg6361"
   sodipodi:version="0.32"
   inkscape:version="0.46"
   sodipodi:docbase="/home/tigert/cvs/freedesktop.org/tango-icon-theme/scalable/apps"
   sodipodi:docname="help-browser.svg"
   inkscape:output_extension="org.inkscape.output.svg.inkscape">
  <defs
     id="defs3">
    <inkscape:perspective
       sodipodi:type="inkscape:persp3d"
       inkscape:vp_x="0 : 24 : 1"
       inkscape:vp_y="0 : 1000 : 0"
       inkscape:vp_z="48 : 24 : 1"
       inkscape:persp3d-origin="24 : 16 : 1"
       id="perspective23" />
    <linearGradient
       id="linearGradient2431">
      <stop
         style="stop-color:#ffffff;stop-opacity:1;"
         offset="0"
         id="stop2433" />
      <stop
         style="stop-color:#b8b8b8;stop-opacity:1;"
         offset="1"
         id="stop2435" />
    </linearGradient>
    <linearGradient
       inkscape:collect="always"
       id="linearGradient21644">
      <stop
         style="stop-color:#000000;stop-opacity:1;"
         offset="0"
         id="stop21646" />
      <stop
         style="stop-color:#000000;stop-opacity:0;"
         offset="1"
         id="stop21648" />
    </linearGradient>
    <radialGradient
       inkscape:collect="always"
       xlink:href="#linearGradient21644"
       id="radialGradient21650"
       cx="25.125"
       cy="36.75"
       fx="25.125"
       fy="36.75"
       r="15.75"
       gradientTransform="matrix(1.000000,0.000000,0.000000,0.595238,3.369686e-16,14.87500)"
       gradientUnits="userSpaceOnUse" />
    <linearGradient
       id="linearGradient2933">
      <stop
         id="stop2935"
         offset="0"
         style="stop-color:#9cbcde;stop-opacity:1" />
      <stop
         id="stop2937"
         offset="1"
         style="stop-color:#204a87" />
    </linearGradient>
    <radialGradient
       inkscape:collect="always"
       xlink:href="#linearGradient2933"
       id="radialGradient2207"
       cx="26.544321"
       cy="28.458725"
       fx="26.544321"
       fy="28.458725"
       r="22.376116"
       gradientUnits="userSpaceOnUse"
       gradientTransform="matrix(1.238342,5.954846e-3,-6.507762e-3,1.351272,-6.992513,-9.744842)" />
    <radialGradient
       inkscape:collect="always"
       xlink:href="#linearGradient2431"
       id="radialGradient2437"
       cx="-19.515638"
       cy="16.855663"
       fx="-19.515638"
       fy="16.855663"
       r="8.7536434"
       gradientTransform="matrix(4.445991,-8.852599e-16,1.367217e-15,6.8665,67.25071,-104.6679)"
       gradientUnits="userSpaceOnUse" />
  </defs>
  <sodipodi:namedview
     inkscape:guide-bbox="true"
     showguides="true"
     id="base"
     pagecolor="#ffffff"
     bordercolor="#666666"
     borderopacity="0.15294118"
     inkscape:pageopacity="0.0"
     inkscape:pageshadow="2"
     inkscape:zoom="1"
     inkscape:cx="25.160747"
     inkscape:cy="22.523569"
     inkscape:current-layer="layer1"
     showgrid="true"
     inkscape:grid-bbox="true"
     inkscape:document-units="px"
     inkscape:window-width="1014"
     inkscape:window-height="818"
     inkscape:window-x="0"
     inkscape:window-y="30"
     inkscape:showpageshadow="false"
     fill="#deb887"
     stroke="#204a87">
    <inkscape:grid
       id="GridFromPre046Settings"
       type="xygrid"
       originx="0px"
       originy="0px"
       spacingx="1px"
       spacingy="1px"
       color="#7171cd"
       empcolor="#7b7bc3"
       opacity="0.12156863"
       empopacity="0.5372549"
       empspacing="10"
       visible="true"
       enabled="true" />
  </sodipodi:namedview>
  <metadata
     id="metadata4">
    <rdf:RDF>
      <cc:Work
         rdf:about="">
        <dc:format>image/svg+xml</dc:format>
        <dc:type
           rdf:resource="http://purl.org/dc/dcmitype/StillImage" />
        <dc:title>Help Browser</dc:title>
        <dc:date>2005-11-06</dc:date>
        <dc:creator>
          <cc:Agent>
            <dc:title>Tuomas Kuosmanen</dc:title>
          </cc:Agent>
        </dc:creator>
        <dc:subject>
          <rdf:Bag>
            <rdf:li>help</rdf:li>
            <rdf:li>browser</rdf:li>
            <rdf:li>documentation</rdf:li>
            <rdf:li>docs</rdf:li>
            <rdf:li>man</rdf:li>
            <rdf:li>info</rdf:li>
          </rdf:Bag>
        </dc:subject>
        <cc:license
           rdf:resource="http://creativecommons.org/licenses/publicdomain/" />
        <dc:contributor>
          <cc:Agent>
            <dc:title>Jakub Steiner, Andreas Nilsson</dc:title>
          </cc:Agent>
        </dc:contributor>
        <dc:source>http://tigert.com</dc:source>
      </cc:Work>
      <cc:License
         rdf:about="http://creativecommons.org/licenses/publicdomain/">
        <cc:permits
           rdf:resource="http://creativecommons.org/ns#Reproduction" />
        <cc:permits
           rdf:resource="http://creativecommons.org/ns#Distribution" />
        <cc:permits
           rdf:resource="http://creativecommons.org/ns#DerivativeWorks" />
      </cc:License>
    </rdf:RDF>
  </metadata>
  <g
     id="layer1"
     inkscape:label="Layer 1"
     inkscape:groupmode="layer">
    <path
       sodipodi:type="arc"
       style="opacity:0.63068181;color:#000000;fill:url(#radialGradient21650);fill-opacity:1.0000000;fill-rule:evenodd;stroke:none;stroke-width:1.0000000;stroke-linecap:round;stroke-linejoin:round;marker:none;marker-start:none;marker-mid:none;marker-end:none;stroke-miterlimit:4.0000000;stroke-dasharray:none;stroke-dashoffset:0.0000000;stroke-opacity:1.0000000;visibility:visible;display:inline;overflow:visible"
       id="path21642"
       sodipodi:cx="25.125000"
       sodipodi:cy="36.750000"
       sodipodi:rx="15.750000"
       sodipodi:ry="9.3750000"
       d="M 40.875000 36.750000 A 15.750000 9.3750000 0 1 1  9.3750000,36.750000 A 15.750000 9.3750000 0 1 1  40.875000 36.750000 z"
       transform="matrix(1.173803,0.000000,0.000000,0.600000,-5.004403,20.32500)" />
    <path
       sodipodi:type="arc"
       style="fill:url(#radialGradient2207);fill-opacity:1.0000000;stroke:#204a87"
       id="path2093"
       sodipodi:cx="23.909048"
       sodipodi:cy="23.825787"
       sodipodi:rx="21.876116"
       sodipodi:ry="21.876116"
       d="M 45.785164 23.825787 A 21.876116 21.876116 0 1 1  2.0329323,23.825787 A 21.876116 21.876116 0 1 1  45.785164 23.825787 z"
       transform="matrix(0.938442,0.000000,0.000000,0.938680,1.564075,1.633906)" />
    <path
       transform="matrix(0.855103,0.000000,0.000000,0.855213,3.555288,3.625019)"
       d="M 45.785164 23.825787 A 21.876116 21.876116 0 1 1  2.0329323,23.825787 A 21.876116 21.876116 0 1 1  45.785164 23.825787 z"
       sodipodi:ry="21.876116"
       sodipodi:rx="21.876116"
       sodipodi:cy="23.825787"
       sodipodi:cx="23.909048"
       id="path2209"
       style="fill:none;fill-opacity:1.0000000;stroke:#ffffff;stroke-width:3.0307744;stroke-miterlimit:4.0000000;stroke-dasharray:none;stroke-opacity:1.0000000;opacity:0.96022727"
       sodipodi:type="arc" />
    <path
       sodipodi:type="inkscape:offset"
       inkscape:radius="0.13495015"
       inkscape:original="M -20.25 6 C -21.298341 6.000026 -22.372769 6.1244771 -23.5 6.34375 C -24.627244 6.563073 -25.886043 6.8832479 -27.25 7.34375 L -27.25 12.5 C -26.100219 11.776335 -24.997109 11.236862 -23.9375 10.875 C -22.877902 10.502213 -21.881822 10.312521 -20.96875 10.3125 C -19.999334 10.312521 -19.259834 10.530174 -18.71875 10.96875 C -18.177686 11.396402 -17.906262 12.013726 -17.90625 12.78125 C -17.906261 13.285654 -18.039408 13.776881 -18.34375 14.28125 C -18.636843 14.785651 -19.107484 15.33609 -19.75 15.90625 L -20.84375 16.84375 C -22.038631 17.918325 -22.815518 18.829509 -23.1875 19.53125 C -23.559495 20.22205 -23.750005 21.007137 -23.75 21.90625 L -23.75 22.71875 L -17.65625 22.71875 L -17.65625 21.96875 C -17.656262 21.475338 -17.517981 21.030712 -17.28125 20.625 C -17.044542 20.208345 -16.547785 19.648586 -15.78125 18.96875 L -14.71875 18.03125 C -13.659161 17.055386 -12.908389 16.156813 -12.46875 15.3125 C -12.029144 14.457253 -11.781268 13.480828 -11.78125 12.40625 C -11.781268 10.311973 -12.525902 8.7417969 -13.96875 7.65625 C -15.41163 6.559783 -17.499549 6.0000261 -20.25 6 z M -23.75 25.15625 L -23.75 31 L -17.65625 31 L -17.65625 25.15625 L -23.75 25.15625 z "
       xlink:href="#text2215"
       style="font-size:34.15322876px;font-style:normal;font-variant:normal;font-weight:bold;font-stretch:normal;text-align:start;line-height:125%;writing-mode:lr-tb;text-anchor:start;fill:url(#radialGradient2437);fill-opacity:1;stroke:#ffffff;stroke-width:1.09947276px;stroke-linecap:butt;stroke-linejoin:miter;stroke-opacity:0.78612713;font-family:Bitstream Vera Sans"
       id="path1554"
       d="M -20.25,5.875 C -21.309019,5.8750263 -22.397637,5.9982356 -23.53125,6.21875 C -24.664175,6.4391783 -25.911412,6.7562625 -27.28125,7.21875 C -27.291632,7.21754 -27.302118,7.21754 -27.3125,7.21875 C -27.324563,7.2273788 -27.335121,7.237937 -27.34375,7.25 C -27.355813,7.2586288 -27.366371,7.269187 -27.375,7.28125 C -27.37621,7.2916315 -27.37621,7.3021185 -27.375,7.3125 C -27.37621,7.3228815 -27.37621,7.3333685 -27.375,7.34375 L -27.375,12.5 C -27.37621,12.510382 -27.37621,12.520868 -27.375,12.53125 C -27.37621,12.541632 -27.37621,12.552118 -27.375,12.5625 C -27.366371,12.574563 -27.355813,12.585121 -27.34375,12.59375 C -27.335121,12.605813 -27.324563,12.616371 -27.3125,12.625 C -27.302118,12.62621 -27.291632,12.62621 -27.28125,12.625 C -27.270868,12.62621 -27.260382,12.62621 -27.25,12.625 C -27.239618,12.62621 -27.229132,12.62621 -27.21875,12.625 C -27.208368,12.62621 -27.197882,12.62621 -27.1875,12.625 C -26.045062,11.905957 -24.954148,11.357862 -23.90625,11 C -22.858109,10.631244 -21.863134,10.437521 -20.96875,10.4375 C -20.019532,10.437521 -19.323825,10.648045 -18.8125,11.0625 C -18.303777,11.46459 -18.031262,12.04554 -18.03125,12.78125 C -18.03126,13.261907 -18.175438,13.73266 -18.46875,14.21875 C -18.751741,14.705766 -19.209015,15.249245 -19.84375,15.8125 L -20.9375,16.75 C -22.138959,17.83049 -22.926743,18.741022 -23.3125,19.46875 C -23.695613,20.180196 -23.875005,20.988074 -23.875,21.90625 L -23.875,22.71875 C -23.87621,22.729132 -23.87621,22.739618 -23.875,22.75 C -23.87621,22.760382 -23.87621,22.770868 -23.875,22.78125 C -23.866371,22.793313 -23.855813,22.803871 -23.84375,22.8125 C -23.835121,22.824563 -23.824563,22.835121 -23.8125,22.84375 C -23.802118,22.84496 -23.791632,22.84496 -23.78125,22.84375 C -23.770868,22.84496 -23.760382,22.84496 -23.75,22.84375 L -17.65625,22.84375 C -17.645868,22.84496 -17.635382,22.84496 -17.625,22.84375 C -17.614618,22.84496 -17.604132,22.84496 -17.59375,22.84375 C -17.581687,22.835121 -17.571129,22.824563 -17.5625,22.8125 C -17.550437,22.803871 -17.539879,22.793313 -17.53125,22.78125 C -17.53004,22.770868 -17.53004,22.760382 -17.53125,22.75 C -17.53004,22.739618 -17.53004,22.729132 -17.53125,22.71875 L -17.53125,21.96875 C -17.531261,21.500554 -17.38288,21.075901 -17.15625,20.6875 C -16.933955,20.296216 -16.448177,19.737141 -15.6875,19.0625 L -14.625,18.125 C -13.558412,17.14269 -12.794341,16.240346 -12.34375,15.375 C -11.894481,14.500954 -11.656268,13.50158 -11.65625,12.40625 C -11.656268,10.279985 -12.400019,8.6722224 -13.875,7.5625 C -15.350197,6.4414748 -17.48124,5.8750263 -20.25,5.875 z M -23.8125,25.03125 C -23.824563,25.039879 -23.835121,25.050437 -23.84375,25.0625 C -23.855813,25.071129 -23.866371,25.081687 -23.875,25.09375 C -23.87621,25.104132 -23.87621,25.114618 -23.875,25.125 C -23.87621,25.135382 -23.87621,25.145868 -23.875,25.15625 L -23.875,31 C -23.87621,31.010382 -23.87621,31.020868 -23.875,31.03125 C -23.87621,31.041632 -23.87621,31.052118 -23.875,31.0625 C -23.866371,31.074563 -23.855813,31.085121 -23.84375,31.09375 C -23.835121,31.105813 -23.824563,31.116371 -23.8125,31.125 C -23.802118,31.12621 -23.791632,31.12621 -23.78125,31.125 C -23.770868,31.12621 -23.760382,31.12621 -23.75,31.125 L -17.65625,31.125 C -17.645868,31.12621 -17.635382,31.12621 -17.625,31.125 C -17.614618,31.12621 -17.604132,31.12621 -17.59375,31.125 C -17.581687,31.116371 -17.571129,31.105813 -17.5625,31.09375 C -17.550437,31.085121 -17.539879,31.074563 -17.53125,31.0625 C -17.53004,31.052118 -17.53004,31.041632 -17.53125,31.03125 C -17.53004,31.020868 -17.53004,31.010382 -17.53125,31 L -17.53125,25.15625 C -17.53004,25.145868 -17.53004,25.135382 -17.53125,25.125 C -17.53004,25.114618 -17.53004,25.104132 -17.53125,25.09375 C -17.539879,25.081687 -17.550437,25.071129 -17.5625,25.0625 C -17.571129,25.050437 -17.581687,25.039879 -17.59375,25.03125 C -17.604132,25.03004 -17.614618,25.03004 -17.625,25.03125 C -17.635382,25.03004 -17.645868,25.03004 -17.65625,25.03125 L -23.75,25.03125 C -23.760382,25.03004 -23.770868,25.03004 -23.78125,25.03125 C -23.791632,25.03004 -23.802118,25.03004 -23.8125,25.03125 z "
       transform="matrix(0.849895,0,0,0.835205,41.72981,8.548327)" />
  </g>
</svg>
